packaging/metadata/org.coolercontrol.CoolerControl.svg

<?xml version="1.0" encoding="UTF-8"?>
<svg xmlns="http://www.w3.org/2000/svg" xmlns:xlink="http://www.w3.org/1999/xlink" viewBox="0 0 256 256" width="256px" height="256px">
<defs>
<linearGradient id="linear0" gradientUnits="userSpaceOnUse" x1="86" y1="8.73438" x2="86" y2="166.095566" gradientTransform="matrix(1.488372,0,0,1.488372,0,0)">
<stop offset="0" style="stop-color:rgb(0%,77.64706%,100%);stop-opacity:1;"/>
<stop offset="1" style="stop-color:rgb(0%,44.705883%,100%);stop-opacity:1;"/>
</linearGradient>
<linearGradient id="linear1" gradientUnits="userSpaceOnUse" x1="60.46875" y1="8.73438" x2="60.46875" y2="166.095566" gradientTransform="matrix(1.488372,0,0,1.488372,0,0)">
<stop offset="0" style="stop-color:rgb(0%,77.64706%,100%);stop-opacity:1;"/>
<stop offset="1" style="stop-color:rgb(0%,44.705883%,100%);stop-opacity:1;"/>
</linearGradient>
<linearGradient id="linear2" gradientUnits="userSpaceOnUse" x1="111.53125" y1="8.73438" x2="111.53125" y2="166.095566" gradientTransform="matrix(1.488372,0,0,1.488372,0,0)">
<stop offset="0" style="stop-color:rgb(0%,77.64706%,100%);stop-opacity:1;"/>
<stop offset="1" style="stop-color:rgb(0%,44.705883%,100%);stop-opacity:1;"/>
</linearGradient>
<linearGradient id="linear3" gradientUnits="userSpaceOnUse" x1="86" y1="73.90625" x2="86" y2="98.195869" gradientTransform="matrix(1.488372,0,0,1.488372,0,0)">
<stop offset="0" style="stop-color:rgb(43.921569%,87.450981%,100%);stop-opacity:1;"/>
<stop offset="1" style="stop-color:rgb(43.921569%,68.627453%,100%);stop-opacity:1;"/>
</linearGradient>
</defs>
<g id="surface502261">
<path style=" stroke:none;fill-rule:nonzero;fill:url(#linear0);" d="M 128 172 C 152.261719 172 172 152.261719 172 128 C 172 103.738281 152.261719 84 128 84 C 103.738281 84 84 103.738281 84 128 C 84 152.261719 103.738281 172 128 172 Z M 128 92 C 147.851562 92 164 108.148438 164 128 C 164 147.851562 147.851562 164 128 164 C 108.148438 164 92 147.851562 92 128 C 92 108.148438 108.148438 92 128 92 Z M 128 92 "/>
<path style=" stroke:none;fill-rule:nonzero;fill:url(#linear1);" d="M 47.242188 150.875 C 56.949219 147.800781 64 138.707031 64 128 C 64 117.285156 56.941406 108.191406 47.230469 105.121094 C 57.042969 70.238281 87.757812 45.855469 124 44.167969 L 124 56.171875 C 124 58.980469 125.46875 61.503906 127.933594 62.925781 C 129.171875 63.640625 130.554688 63.996094 131.945312 63.996094 C 133.34375 63.996094 134.738281 63.636719 135.984375 62.910156 L 158.175781 50.019531 C 161.820312 47.894531 164 44.152344 164 40 C 164 35.847656 161.820312 32.105469 158.171875 29.984375 L 135.984375 17.09375 C 133.507812 15.644531 130.414062 15.644531 127.933594 17.074219 C 125.46875 18.496094 124 21.019531 124 23.828125 L 124 36.167969 C 83.761719 37.878906 49.675781 65.128906 39.238281 104.039062 C 26.355469 104.445312 16 115.023438 16 128 C 16 140.980469 26.363281 151.558594 39.246094 151.960938 C 44.824219 172.664062 57.402344 190.8125 75.078125 203.261719 L 79.6875 196.71875 C 63.824219 185.554688 52.46875 169.363281 47.242188 150.875 Z M 154.152344 36.898438 C 155.820312 37.867188 156 39.390625 156 40 C 156 40.609375 155.820312 42.132812 154.15625 43.101562 L 132 55.941406 L 131.96875 24.007812 Z M 24 128 C 24 119.175781 31.175781 112 40 112 C 48.824219 112 56 119.175781 56 128 C 56 136.824219 48.824219 144 40 144 C 31.175781 144 24 136.824219 24 128 Z M 24 128 "/>
<path style=" stroke:none;fill-rule:nonzero;fill:url(#linear2);" d="M 240 128 C 240 115.019531 229.636719 104.441406 216.753906 104.039062 C 211.175781 83.335938 198.597656 65.1875 180.921875 52.738281 L 176.3125 59.28125 C 192.175781 70.449219 203.53125 86.640625 208.757812 105.125 C 199.050781 108.199219 192 117.292969 192 128 C 192 138.714844 199.058594 147.808594 208.773438 150.882812 C 198.960938 185.761719 168.242188 210.144531 132 211.832031 L 132 199.828125 C 132 197.019531 130.53125 194.496094 128.066406 193.074219 C 125.574219 191.640625 122.488281 191.644531 120.015625 193.09375 L 97.824219 205.984375 C 94.179688 208.105469 92 211.847656 92 216 C 92 220.152344 94.179688 223.894531 97.828125 226.015625 L 120.015625 238.90625 C 121.261719 239.636719 122.65625 239.992188 124.054688 239.992188 C 125.445312 239.992188 126.828125 239.636719 128.066406 238.921875 C 130.53125 237.503906 132 234.980469 132 232.171875 L 132 219.832031 C 172.234375 218.121094 206.328125 190.871094 216.765625 151.964844 C 229.644531 151.550781 240 140.976562 240 128 Z M 124 231.972656 L 101.847656 219.101562 C 100.179688 218.132812 100 216.609375 100 216 C 100 215.390625 100.179688 213.867188 101.84375 212.898438 L 124 199.828125 Z M 216 144 C 207.175781 144 200 136.824219 200 128 C 200 119.175781 207.175781 112 216 112 C 224.824219 112 232 119.175781 232 128 C 232 136.824219 224.824219 144 216 144 Z M 216 144 "/>
<path style=" stroke:none;fill-rule:nonzero;fill:url(#linear3);" d="M 128 112 C 119.164062 112 112 119.164062 112 128 C 112 136.835938 119.164062 144 128 144 C 136.835938 144 144 136.835938 144 128 C 144 119.164062 136.835938 112 128 112 Z M 128 112 "/>
</g>
</svg>

<svg xmlns="http://www.w3.org/2000/svg" width="256" height="256" viewBox="0 0 256 256"><defs><linearGradient id="a" x1="86" x2="86" y1="8.734" y2="166.096" gradientTransform="scale(1.48837)" gradientUnits="userSpaceOnUse"><stop offset="0" style="stop-color:#00c6ff;stop-opacity:1"/><stop offset="1" style="stop-color:#0072ff;stop-opacity:1"/></linearGradient><linearGradient id="b" x1="60.469" x2="60.469" y1="8.734" y2="166.096" gradientTransform="scale(1.48837)" gradientUnits="userSpaceOnUse"><stop offset="0" style="stop-color:#00c6ff;stop-opacity:1"/><stop offset="1" style="stop-color:#0072ff;stop-opacity:1"/></linearGradient><linearGradient id="c" x1="111.531" x2="111.531" y1="8.734" y2="166.096" gradientTransform="scale(1.48837)" gradientUnits="userSpaceOnUse"><stop offset="0" style="stop-color:#00c6ff;stop-opacity:1"/><stop offset="1" style="stop-color:#0072ff;stop-opacity:1"/></linearGradient><linearGradient id="d" x1="86" x2="86" y1="73.906" y2="98.196" gradientTransform="scale(1.48837)" gradientUnits="userSpaceOnUse"><stop offset="0" style="stop-color:#70dfff;stop-opacity:1"/><stop offset="1" style="stop-color:#70afff;stop-opacity:1"/></linearGradient></defs><path d="M128 172c24.262 0 44-19.738 44-44s-19.738-44-44-44-44 19.738-44 44 19.738 44 44 44m0-80c19.852 0 36 16.148 36 36s-16.148 36-36 36-36-16.148-36-36 16.148-36 36-36m0 0" style="stroke:none;fill-rule:nonzero;fill:url(#a)"/><path d="M47.242 150.875C56.95 147.801 64 138.707 64 128c0-10.715-7.059-19.809-16.77-22.879C57.043 70.238 87.758 45.855 124 44.168v12.004c0 2.808 1.469 5.332 3.934 6.754a8 8 0 0 0 4.011 1.07c1.399 0 2.793-.36 4.04-1.086l22.19-12.89C161.82 47.895 164 44.152 164 40s-2.18-7.895-5.828-10.016l-22.188-12.89a8.04 8.04 0 0 0-8.05-.02C125.469 18.496 124 21.02 124 23.828v12.34c-40.238 1.71-74.324 28.96-84.762 67.871C26.355 104.445 16 115.023 16 128c0 12.98 10.363 23.559 23.246 23.96 5.578 20.704 18.156 38.852 35.832 51.302l4.61-6.543c-15.864-11.164-27.22-27.356-32.446-45.844m106.91-113.977C155.82 37.868 156 39.391 156 40c0 .61-.18 2.133-1.844 3.102L132 55.942l-.031-31.934ZM24 128c0-8.824 7.176-16 16-16s16 7.176 16 16-7.176 16-16 16-16-7.176-16-16m0 0" style="stroke:none;fill-rule:nonzero;fill:url(#b)"/><path d="M240 128c0-12.98-10.363-23.559-23.246-23.96-5.578-20.704-18.156-38.853-35.832-51.302l-4.61 6.543c15.864 11.168 27.22 27.36 32.446 45.844C199.05 108.199 192 117.293 192 128c0 10.715 7.059 19.809 16.773 22.883-9.812 34.879-40.53 59.262-76.773 60.949v-12.004c0-2.808-1.469-5.332-3.934-6.754a8.04 8.04 0 0 0-8.05.02l-22.192 12.89C94.18 208.105 92 211.848 92 216s2.18 7.895 5.828 10.016l22.188 12.89a7.97 7.97 0 0 0 4.039 1.086c1.39 0 2.773-.355 4.011-1.07 2.465-1.418 3.934-3.942 3.934-6.75v-12.34c40.234-1.71 74.328-28.96 84.766-67.867C229.645 151.55 240 140.977 240 128M124 231.973l-22.152-12.871c-1.668-.97-1.848-2.493-1.848-3.102 0-.61.18-2.133 1.844-3.102L124 199.828ZM216 144c-8.824 0-16-7.176-16-16s7.176-16 16-16 16 7.176 16 16-7.176 16-16 16m0 0" style="stroke:none;fill-rule:nonzero;fill:url(#c)"/><path d="M128 112c-8.836 0-16 7.164-16 16s7.164 16 16 16 16-7.164 16-16-7.164-16-16-16m0 0" style="stroke:none;fill-rule:nonzero;fill:url(#d)"/></svg>
